X: 35180
T: Rookland Lasses
R: jig
M: 6/8
K: Gmajor
|:E|D2 G B^AB|GB/c/d gfg|dBG DGB|cAF D2 E|
DGG B^AB|GBd gfg|dBG DFA|1 BGG G2:|2 BGF G||
|:d/e/f|gGG fGG|eGG dGG|DGG dBG|
[1 FAA Ad/e/f|gGG fGG|eGG dGG|DGG dBG|FAA G:|
[2 FAA AFE|DGG ecA|fdB gdB|cAF Ddc|BGG G2||

